X: 401
T: A Tribute To Séan Maguire
R: hornpipe
M: 4/4
K: Cmajor
|:(3G^F=F|EG,CE FED^F|GC (3EFG ADFc|BG (3GFG fedf|eGce dB (3G^F=F|
EG,CE FED^F|GC (3EFG ADFc|BG (3GFG fedB|ce (3dcB c2:|
|:(3GAB|cege fedf|eGce dBG^F|FAdF EGce|(3ded (3cBA G2 (3G^F=F|
EG,CE FED^F|GC (3EFG ADFc|BG (3GFG fedB|ce (3dcB c2:|

